src/assets/images/template_image/10.svg

<svg width="48" height="48" viewBox="0 0 48 48" fill="none" xmlns="http://www.w3.org/2000/svg"><path opacity=".2" d="M24 46C36.1503 46 46 36.1503 46 24 46 11.8497 36.1503 2 24 2 11.8497 2 2 11.8497 2 24 2 36.1503 11.8497 46 24 46z" fill="#7c72f2"/><path d="M32.8 24C32.8 22.7625 33.79 21.75 35 21.75v-4.5C35 16.0125 34.01 15 32.8 15H15.2C13.99 15 13.011 16.0125 13.011 17.25v4.5C14.221 21.75 15.2 22.7625 15.2 24 15.2 25.2375 14.221 26.25 13 26.25v4.5C13 31.9875 13.99 33 15.2 33H32.8C34.01 33 35 31.9875 35 30.75v-4.5C33.79 26.25 32.8 25.2375 32.8 24zM27.938 29.4 24 26.8125 20.062 29.4 21.25 24.765 17.631 21.7388 22.295 21.4575 24 17.025 25.694 21.4688 30.358 21.75 26.739 24.7763 27.938 29.4z" fill="#7c72f2"/></svg>

<svg width="48" height="48" fill="none" xmlns="http://www.w3.org/2000/svg"><path opacity=".2" d="M24 46c12.15 0 22-9.85 22-22S36.15 2 24 2 2 11.85 2 24s9.85 22 22 22z" fill="#7c72f2"/><path d="M32.8 24c0-1.238.99-2.25 2.2-2.25v-4.5c0-1.238-.99-2.25-2.2-2.25H15.2c-1.21 0-2.189 1.012-2.189 2.25v4.5c1.21 0 2.189 1.012 2.189 2.25s-.979 2.25-2.2 2.25v4.5c0 1.238.99 2.25 2.2 2.25h17.6c1.21 0 2.2-1.012 2.2-2.25v-4.5c-1.21 0-2.2-1.012-2.2-2.25zm-4.862 5.4L24 26.813 20.062 29.4l1.188-4.635-3.619-3.026 4.664-.282L24 17.026l1.694 4.444 4.664.281-3.619 3.026 1.199 4.624z" fill="#7c72f2"/></svg>
